X:2
T:Georgia On My Mind
C:Hoagy Carmichael
L:1/4
M:C
I:linebreak $
K:G
"G" B/ d3/2 z2 |"F#ø" B/ A3/2"B7" z2 |"Em" z B"Em/D" e B |"Dbø" A2"Cm" z"F7" G/A/ ||1$
"G" B/ d3/2"E7" f e |"Am" c/ d3/2"D7" B A |"Bm" d2"Em" z2 |"Am" e/e/e/e/"D7" ^A2 :|2$
"Bm" B/ d3/2"E7" f e |"Am" c E"D7" B B |"G" G4 | "_Fine" z4 |]$"Em" z/ E/ G"F#ø" A B |
"G6" G E"F#ø" G2 |"Em" z/ E/ G"F#ø" A B |"G6" d B"F#m" ^c2 |$"Em" z/ E/ G"Ebo" A B |
"Em/D" d e"Dbø" f"F#7" e |"Bm" d3/2 B/"E7" d B |"Am" A2"D7" "_D.C. al 2nd end." ^A2 ||

